X:13281
T:Polka
R:Polka
O:France
M:2/4
K:G
G3A B2d2|cdcB A2c2|B3A G2B2|AGFG A2D2|\
G3A B2d2|cdcB A2c2|B3G A2F2|G8::\
A3B c2A2|BcBA G2B2|A3B c2A2|Bcd2 G2B2|\
A3B c2A2|BcBA G2B2|1A3G F2E2|D8:|2B3A G2E2|D8||
